X:1
T:Forever I with fierce desire - Webbe
T:#
%%score [ 1 2 3 ]
L:1/8
Q:1/4=140
M:2/2
K:Eb
V:1 treble nm="1" snm="1"
V:2 treble nm="2" snm="2"
V:3 treble nm="3" snm="3"
V:1
"^Forever I with fierce desire""^Samuel Webbe \n(1740-1816)""^moderato" G2 | G4 G4 | F6 G2 | %3
w: For-|e- ver|I with|
 A4 A4 | G6 G2 | (F2 G2) (A2 B2) | (c2 d2) (e2 f2) | g4 Tf4 | (f2 e4) B2 |[M:2/2] (e2 B2) (B2 e2) | %10
w: fierce de-|sire Could|gaze * on *|thee * and *|ne- ver|tire; * My|ra\- * vish'd *|
 (e2 d2) (f2 e2) | (d2 B2) (c2 d2) | e8 | B4 B2 (B>e) | e4 E4 | B6 (BA) | (A2 G4) E2 | E4 E4 | %18
w: ears * could *|all * day *|long|Feast on the *|mu- sic|of thy *|tongue; * And|when that|
 B6 E2 | F4 F4 | E6 E2 | (D2 E2) (F2 G2) | (A2 B2) (c2 d2) | e4 Td4 | e6 G2 | G4 G4 | F6 G2 | %27
w: fails, yet|still in|you I|some\- * thing *|find * that's *|al- ways|new. For-|e- ver|I with|
 A4 A4 | G6 G2 | (F2 G2) (A2 B2) | (c2 d2) (e2 f2) | g4 Tf4 | (f2 e4) B2 | (e2 B2) (B2 e2) | %34
w: fierce de-|sire Could|gaze * on *|thee * and *|ne- ver|tire; * My|ra\- * vish'd *|
 (e2 d2) (f2 e2) | (d2 B2) (c2 d2) | e8 | B4 B2 (B>e) | e4 E4 | B6 (BA) | (A2 G4) E2 | E4 E4 | %42
w: ears * could *|all * day *|long|Feast on the *|mu- sic|of thy *|tongue; * And|when that|
 B6 E2 | F4 F4 | E6 E2 | (D2 E2) (F2 G2) | (A2 B2) (c2 d2) | e4 Td4 | e6 x2 || z2 x6 | z8 | z8 | %52
w: fails, yet|still in|you I|some\- * thing *|find * that's *|al- ways|new.||||
 z8 | z8 | z8 | z8 | z8 | z8 | z8 | z8 | z8 | z8 |[Q:1/4=138] z8[Q:1/4=136][Q:1/4=133][Q:1/4=130] | %63
w: |||||||||||
[Q:1/4=127] z8[Q:1/4=122] |[Q:1/4=120] z8 | z6 |] %66
w: |||
V:2
 z2 | z8 | z8 | z8 | z8 | z8 | z8 | z8 | z6 G2 |[M:2/2] G4 G4 | F6 G2 | A4 A4 | G6 G2 | %13
w: ||||||||For-|e- ver|I with|fierce de-|sire Could|
 (F2 G2) (A2 B2) | (c2 d2) (e2 f2) | g4 Tf4 | (f2 e4) B2 | (e2 B2) (B2 e2) | (e2 d2) (f2 e2) | %19
w: gaze * on *|thee * and *|ne- ver|tire; * My|ra\- * vish'd *|ears * could *|
 (d2 B2) (c2 d2) | e8 | B4 B2 (B>e) | e4 E4 | B6 (BA) | (A2 G4) E2 | E4 E4 | B6 E2 | F4 F4 | %28
w: all * day *|long|Feast on the *|mu- sic|of thy *|tongue; * And|when that|fails, yet|still in|
 E6 E2 | (D2 E2) (F2 G2) | (A2 B2) (c2 d2) | e4 Td4 | e6 G2 | G4 G4 | F6 G2 | A4 A4 | G6 G2 | %37
w: you I|some\- * thing *|find * that's *|al- ways|new. For-|e- ver|I with|fierce de-|sire Could|
 (F2 G2) (A2 B2) | (c2 d2) (e2 f2) | g4 Tf4 | (f2 e4) B2 | (e2 B2) (B2 e2) | (e2 d2) (f2 e2) | %43
w: gaze * on *|thee * and *|ne- ver|tire; * My|ra\- * vish'd *|ears * could *|
 (d2 B2) (c2 d2) | e8 | B4 B2 (B>e) | e4 E4 | B6 (BA) | (A2 G4) E2 || E4 E4 | B6 E2 | F4 F4 | %52
w: all * day *|long|Feast on the *|mu- sic|of thy *|tongue; * And|when that|fails, yet|still in|
 E6 E2 | (D2 E2) (F2 G2) | (A2 B2) (c2 d2) | e4 Td4 | e6 x2 | z2 x6 | z8 | z8 | z8 | z8 | z8 | z8 | %64
w: you I|some\- * thing *|find * that's *|al- ways|new.||||||||
 z8 | z6 |] %66
w: ||
V:3
 z2 | z8 | z8 | z8 | z8 | z8 | z8 | z8 | z8 |[M:2/2] z8 | z8 | z8 | z8 | z8 | z8 | z8 | z6 G2 | %17
w: ||||||||||||||||For-|
 G4 G4 | F6 G2 | A4 A4 | G6 G2 | (F2 G2) (A2 B2) | (c2 d2) (e2 f2) | g4 Tf4 | (f2 e4) B2 | %25
w: e- ver|I with|fierce de-|sire Could|gaze * on *|thee * and *|ne- ver|tire; * My|
 (e2 B2) (B2 e2) | (e2 d2) (f2 e2) | (d2 B2) (c2 d2) | e8 | B4 B2 (B>e) | e4 E4 | B6 (BA) | %32
w: ra\- * vish'd *|ears * could *|all * day *|long|Feast on the *|mu- sic|of thy *|
 (A2 G4) E2 | E4 E4 | B6 E2 | F4 F4 | E6 E2 | (D2 E2) (F2 G2) | (A2 B2) (c2 d2) | e4 Td4 | %40
w: tongue; * And|when that|fails, yet|still in|you I|some\- * thing *|find * that's *|al- ways|
 e6"^moderato" G2 | G4 G4 | F6 G2 | A4 A4 | G6 G2 | (F2 G2) (A2 B2) | (c2 d2) (e2 f2) | g4 Tf4 | %48
w: new. For-|e- ver|I with|fierce de-|sire Could|gaze * on *|thee * and *|ne- ver|
 (f2 e4) B2 || (e2 B2) (B2 e2) | (e2 d2) (f2 e2) | (d2 B2) (c2 d2) | e8 | B4 B2 (B>e) | e4 E4 | %55
w: tire; * My|ra\- * vish'd *|ears * could *|all * day *|long|Feast on the *|mu- sic|
 B6 (BA) | (A2 G4) E2 | E4 E4 | B6 E2 | F4 F4 | E6 E2 | (D2 E2) (F2 G2) | (A2 B2) (c2 d2) | %63
w: of thy *|tongue; * And|when that|fails, yet|still in|you I|some\- * thing *|find * that's *|
 e4 Td4 | e6 x2 | x6 |] %66
w: al- ways|new.||

